UI/Map-View/SVG/south_solid_16px.svg

<svg width="16" height="16" viewBox="0 0 16 16" fill="none" xmlns="http://www.w3.org/2000/svg">
<path d="M7.00001 8L8.00001 5L9.00001 8H7.00001ZM8.00001 15L11 8L8.00001 1L5.00001 8L8.00001 15ZM13 7.52C13.0434 7.85192 13.0434 8.18808 13 8.52C12.9097 9.55764 12.4891 10.539 11.8 11.32L10.38 14.63C11.7382 14.1435 12.9128 13.2493 13.7433 12.0697C14.5738 10.8901 15.0195 9.48264 15.0195 8.04C15.0195 6.59736 14.5738 5.18995 13.7433 4.01032C12.9128 2.8307 11.7382 1.93648 10.38 1.45L11.8 4.76C12.4814 5.53023 12.9014 6.49638 13 7.52ZM5.65001 14.59L4.23001 11.28C3.52999 10.503 3.09872 9.52119 3.00001 8.48C2.95665 8.14808 2.95665 7.81192 3.00001 7.48C3.0903 6.44236 3.51088 5.46099 4.20001 4.68L5.65001 1.41C4.29187 1.89648 3.1172 2.7907 2.28671 3.97032C1.45623 5.14995 1.0105 6.55736 1.0105 8C1.0105 9.44264 1.45623 10.8501 2.28671 12.0297C3.1172 13.2093 4.29187 14.1035 5.65001 14.59Z" fill="#0F1621"/>
</svg>

<svg xmlns="http://www.w3.org/2000/svg" width="16" height="16" viewBox="0 0 16 16"><rect width="16" height="16" style="fill:none"/><path d="M7,8,8,5,9,8M8,15l3-7L8,1,5,8l3,7Zm5-7.48a3.86,3.86,0,0,1,0,1,4.87,4.87,0,0,1-1.2,2.8l-1.42,3.31a7,7,0,0,0,0-13.18l1.42,3.31A4.87,4.87,0,0,1,13,7.52ZM5.65,14.59,4.23,11.28A4.87,4.87,0,0,1,3,8.48a3.86,3.86,0,0,1,0-1,4.87,4.87,0,0,1,1.2-2.8L5.65,1.41a7,7,0,0,0,0,13.18Z"/></svg>
